images/icons/Client 1.svg

<svg width="170" height="92" viewBox="0 0 170 92" fill="none" xmlns="http://www.w3.org/2000/svg">
<rect x="0.5" y="0.5" width="169" height="91" rx="3.5" stroke="#AFB1B8"/>
<path fill-rule="evenodd" clip-rule="evenodd" d="M70 23L77.0078 29.6341L64 29.6265V61.8137H98V49.507L105 56.1338V23H70ZM97.6924 48.7283L77.8226 29.918H97.6924V48.7283ZM91.5231 57.1055H69.3801V35.4579H70.9453V55.6397H91.5231V57.1055ZM74.6089 66.0991L73.791 67.7837L72.9731 66.0991H72.2871L73.481 68.3452V69.6538H74.1011V68.3452L75.2925 66.0991H74.6089ZM75.6367 69.6538L75.9248 68.8262H77.3018L77.5923 69.6538H78.2368L76.8916 66.0991H76.3374L74.9946 69.6538H75.6367ZM76.6133 66.8535L77.1284 68.3281H76.0981L76.6133 66.8535ZM79.8701 68.2427C79.7806 68.3794 79.7358 68.5299 79.7358 68.6943C79.7358 68.9938 79.8408 69.2371 80.0508 69.4243C80.2624 69.6099 80.5439 69.7026 80.8955 69.7026C81.2471 69.7026 81.5498 69.6074 81.8037 69.417L82.0039 69.6538H82.6924L82.1699 69.0361C82.375 68.7562 82.4775 68.3973 82.4775 67.9595H81.9624C81.9624 68.1987 81.9128 68.416 81.8135 68.6113L81.1274 67.8008L81.3691 67.625C81.54 67.5013 81.6629 67.3776 81.7378 67.2539C81.8127 67.1286 81.8501 66.9919 81.8501 66.8438C81.8501 66.6191 81.7671 66.4312 81.6011 66.2798C81.4367 66.1268 81.2251 66.0503 80.9663 66.0503C80.6798 66.0503 80.452 66.1317 80.2827 66.2944C80.1134 66.4556 80.0288 66.6753 80.0288 66.9536C80.0288 67.0675 80.0557 67.1855 80.1094 67.3076C80.1647 67.4297 80.2616 67.5778 80.3999 67.752C80.1362 67.9408 79.9596 68.1043 79.8701 68.2427ZM81.4741 69.0288C81.3 69.1623 81.1128 69.229 80.9126 69.229C80.7352 69.229 80.5936 69.1777 80.4878 69.0752C80.382 68.9727 80.3291 68.8392 80.3291 68.6748C80.3291 68.4844 80.4268 68.3151 80.6221 68.167L80.6978 68.1133L81.4741 69.0288ZM80.8369 67.4541C80.6693 67.2474 80.5854 67.0757 80.5854 66.939C80.5854 66.8201 80.6196 66.7217 80.688 66.6436C80.7563 66.5654 80.8483 66.5264 80.9639 66.5264C81.0713 66.5264 81.16 66.5597 81.23 66.6265C81.3 66.6916 81.335 66.7705 81.335 66.8633C81.335 67.0033 81.2845 67.118 81.1836 67.2075L81.1079 67.2686L80.8369 67.4541ZM86.623 69.3853C86.8672 69.172 87.0072 68.8758 87.043 68.4966H86.4277C86.3952 68.7505 86.3179 68.932 86.1958 69.041C86.0737 69.1501 85.8914 69.2046 85.6489 69.2046C85.3836 69.2046 85.1818 69.1037 85.0435 68.9019C84.9067 68.7 84.8384 68.4071 84.8384 68.0229V67.708C84.8416 67.3288 84.9149 67.0415 85.0581 66.8462C85.203 66.6493 85.4097 66.5508 85.6782 66.5508C85.9093 66.5508 86.0843 66.6077 86.2031 66.7217C86.3236 66.834 86.3984 67.0179 86.4277 67.2734H87.043C87.0039 66.8844 86.8647 66.5833 86.6255 66.3701C86.3862 66.1569 86.0705 66.0503 85.6782 66.0503C85.3869 66.0503 85.1297 66.1195 84.9067 66.2578C84.6854 66.3962 84.5153 66.5931 84.3965 66.8486C84.2777 67.1042 84.2183 67.3996 84.2183 67.7349V68.0669C84.2231 68.394 84.2842 68.6813 84.4014 68.9287C84.5186 69.1761 84.6846 69.3674 84.8994 69.5024C85.1159 69.6359 85.3657 69.7026 85.6489 69.7026C86.0542 69.7026 86.3789 69.5968 86.623 69.3853ZM90.2534 68.8872C90.3739 68.6235 90.4341 68.3175 90.4341 67.9692V67.7715C90.4325 67.4248 90.3706 67.1213 90.2485 66.8608C90.1265 66.5988 89.9531 66.3986 89.7285 66.2603C89.5055 66.1203 89.2492 66.0503 88.9595 66.0503C88.6698 66.0503 88.4126 66.1211 88.188 66.2627C87.965 66.4027 87.7917 66.6053 87.668 66.8706C87.5459 67.1359 87.4849 67.4419 87.4849 67.7886V67.9888C87.4865 68.3289 87.5483 68.6292 87.6704 68.8896C87.7941 69.1501 87.9683 69.3511 88.1929 69.4927C88.4191 69.6326 88.6763 69.7026 88.9644 69.7026C89.2557 69.7026 89.5129 69.6326 89.7358 69.4927C89.9604 69.3511 90.133 69.1493 90.2534 68.8872ZM89.5918 66.8779C89.7415 67.0879 89.8164 67.3898 89.8164 67.7837V67.9692C89.8164 68.3696 89.7423 68.674 89.5942 68.8823C89.4478 69.0907 89.2378 69.1948 88.9644 69.1948C88.6942 69.1948 88.4826 69.0882 88.3296 68.875C88.1782 68.6618 88.1025 68.3599 88.1025 67.9692V67.7642C88.1058 67.3817 88.1823 67.0863 88.332 66.8779C88.4834 66.668 88.6925 66.563 88.9595 66.563C89.2329 66.563 89.4437 66.668 89.5918 66.8779Z" fill="#AFB1B8"/>
</svg>

<svg width="170" height="92" fill="none" xmlns="http://www.w3.org/2000/svg"><rect x=".5" y=".5" width="169" height="91" rx="3.5" stroke="#AFB1B8"/><path fill-rule="evenodd" clip-rule="evenodd" d="m70 23 7.008 6.634L64 29.626v32.188h34V49.507l7 6.627V23H70Zm27.692 25.728-19.87-18.81h19.87v18.81Zm-6.169 8.377H69.38V35.459h1.565V55.64h20.578v1.465ZM74.61 66.1l-.818 1.685-.818-1.685h-.686l1.194 2.246v1.309h.62v-1.309l1.192-2.246h-.684Zm1.028 3.555.288-.828h1.377l.29.828h.645l-1.345-3.555h-.555l-1.342 3.555h.642Zm.976-2.8.515 1.474h-1.03l.515-1.475Zm3.257 1.389a.807.807 0 0 0-.134.451c0 .3.105.543.315.73.211.186.493.279.844.279.352 0 .655-.096.909-.286l.2.237h.688l-.522-.618c.205-.28.308-.639.308-1.076h-.516c0 .239-.05.456-.148.651l-.687-.81.242-.176a1.34 1.34 0 0 0 .369-.371.785.785 0 0 0 .112-.41.732.732 0 0 0-.249-.564.895.895 0 0 0-.635-.23c-.286 0-.514.082-.683.244-.17.162-.254.381-.254.66 0 .114.027.232.08.354.056.122.153.27.29.444-.263.189-.44.352-.529.49Zm1.604.786a.905.905 0 0 1-.561.2.585.585 0 0 1-.425-.154.533.533 0 0 1-.159-.4c0-.19.098-.36.293-.508l.076-.054.776.916Zm-.637-1.575c-.168-.207-.252-.378-.252-.515 0-.119.035-.217.103-.295a.348.348 0 0 1 .276-.118.37.37 0 0 1 .266.1c.07.066.105.144.105.237a.44.44 0 0 1-.151.344l-.076.062-.271.185Zm5.786 1.931c.244-.213.384-.51.42-.888h-.615c-.033.254-.11.435-.232.544-.122.11-.305.164-.547.164-.265 0-.467-.101-.606-.303-.136-.202-.205-.495-.205-.88v-.314c.004-.38.077-.666.22-.862.145-.197.352-.295.62-.295.231 0 .406.057.525.17.12.113.195.297.225.552h.615c-.04-.389-.178-.69-.418-.903-.239-.213-.555-.32-.947-.32-.291 0-.548.07-.771.208a1.346 1.346 0 0 0-.51.59 2.082 2.082 0 0 0-.179.887v.332c.005.327.066.614.183.862.118.247.284.438.498.573.217.134.467.2.75.2.405 0 .73-.105.974-.317Zm3.63-.498c.12-.263.181-.57.181-.918v-.197a2.149 2.149 0 0 0-.185-.911 1.356 1.356 0 0 0-.52-.6c-.224-.14-.48-.21-.77-.21-.29 0-.546.07-.771.212-.223.14-.396.342-.52.608a2.174 2.174 0 0 0-.183.918v.2c.002.34.063.64.185.9.124.261.298.462.523.604.226.14.483.21.771.21.292 0 .549-.07.772-.21.224-.142.397-.344.517-.606Zm-.661-2.01c.15.21.224.513.224.907v.185c0 .4-.074.705-.222.913-.146.209-.356.313-.63.313a.738.738 0 0 1-.634-.32c-.152-.213-.227-.515-.227-.906v-.205c.003-.382.08-.678.229-.886a.731.731 0 0 1 .628-.315c.273 0 .484.105.632.315Z" fill="#AFB1B8"/></svg>
